static/img/svg/popular.svg

<svg xmlns="http://www.w3.org/2000/svg" width="24" height="24" viewBox="0 0 24 24"><path d="M7 8H9V18H7zM15 12H17V18H15zM19 14H21V18H19zM3 15H5V18H3z"/><path d="M12 2L8 6 11.969 6 10.969 6.002 11 18.002 13 17.998 12.969 6 16 6zM3 20H21V22H3z"/></svg>

<svg xmlns="http://www.w3.org/2000/svg" width="24" height="24" viewBox="0 0 24 24"><path d="M13 18V6h3l-4-4-4 4h3v12z"/><path d="M7 8h2v10H7zM15 12h2v6h-2zM19 14h2v4h-2zM3 15h2v3H3zM3 20h18v2H3z"/></svg>
